common/svg/commit-icon.svg

<svg fill="none" height="20" viewBox="0 0 20 20" width="20" xmlns="http://www.w3.org/2000/svg"><path clip-rule="evenodd" d="m3.33333 0c-1.84095 0-3.33333 1.49238-3.33333 3.33333v13.33337c0 1.8409 1.49238 3.3333 3.33333 3.3333h13.33337c1.8409 0 3.3333-1.4924 3.3333-3.3333v-13.33337c0-1.84095-1.4924-3.33333-3.3333-3.33333zm8.50807 11.8444c.4884-.4886.7628-1.1512.7628-1.8422 0-.69089-.2744-1.35353-.7628-1.84209-.4884-.48857-1.1507-.76304-1.8414-.76304-.69067 0-1.35305.27447-1.84142.76304-.48838.48856-.76275 1.1512-.76275 1.84209 0 .691.27437 1.3536.76275 1.8422.48837.4886 1.15075.763 1.84142.763.6907 0 1.353-.2744 1.8414-.763zm.8135 1.3672c.7471-.6174 1.2559-1.4758 1.4389-2.4278h3.4583c.2072 0 .4059-.0823.5524-.2289s.2288-.3454.2288-.5527c0-.20723-.0823-.40602-.2288-.5526-.1465-.14656-.3452-.22891-.5524-.22891h-3.4583c-.1819-.95288-.6903-1.81249-1.4375-2.43078-.7472-.6183-1.6866-.95658-2.6563-.95658-.96972 0-1.90908.33828-2.65632.95658-.74723.61829-1.25556 1.4779-1.43743 2.43078h-3.45833c-.2072 0-.40592.08235-.55243.22891-.14651.14658-.22882.34537-.22882.5526 0 .2073.08231.4061.22882.5527s.34523.2289.55243.2289h3.45833c.18298.952.69176 1.8104 1.43887 2.4278.7471.6174 1.68585.9551 2.65488.9551.969 0 1.9078-.3377 2.6549-.9551z" fill="#000" fill-rule="evenodd"/></svg>

<svg width="20" height="20" viewBox="0 0 20 20" fill="none" xmlns="http://www.w3.org/2000/svg">
<path fill-rule="evenodd" clip-rule="evenodd" d="M3.33333 0C1.49238 0 0 1.49238 0 3.33333V16.6667C0 18.5076 1.49238 20 3.33333 20H16.6667C18.5076 20 20 18.5076 20 16.6667V3.33333C20 1.49238 18.5076 0 16.6667 0H3.33333ZM11.8414 11.8444C12.3298 11.3558 12.6042 10.6932 12.6042 10.0022C12.6042 9.31131 12.3298 8.64867 11.8414 8.16011C11.353 7.67154 10.6907 7.39707 10 7.39707C9.30933 7.39707 8.64695 7.67154 8.15858 8.16011C7.6702 8.64867 7.39583 9.31131 7.39583 10.0022C7.39583 10.6932 7.6702 11.3558 8.15858 11.8444C8.64695 12.333 9.30933 12.6074 10 12.6074C10.6907 12.6074 11.353 12.333 11.8414 11.8444ZM12.6549 13.2116C13.402 12.5942 13.9108 11.7358 14.0938 10.7838H17.5521C17.7593 10.7838 17.958 10.7015 18.1045 10.5549C18.251 10.4083 18.3333 10.2095 18.3333 10.0022C18.3333 9.79497 18.251 9.59618 18.1045 9.4496C17.958 9.30304 17.7593 9.22069 17.5521 9.22069H14.0938C13.9119 8.26781 13.4035 7.4082 12.6563 6.78991C11.9091 6.17161 10.9697 5.83333 10 5.83333C9.03028 5.83333 8.09092 6.17161 7.34368 6.78991C6.59645 7.4082 6.08812 8.26781 5.90625 9.22069H2.44792C2.24072 9.22069 2.042 9.30304 1.89549 9.4496C1.74898 9.59618 1.66667 9.79497 1.66667 10.0022C1.66667 10.2095 1.74898 10.4083 1.89549 10.5549C2.042 10.7015 2.24072 10.7838 2.44792 10.7838H5.90625C6.08923 11.7358 6.59801 12.5942 7.34512 13.2116C8.09222 13.829 9.03097 14.1667 10 14.1667C10.969 14.1667 11.9078 13.829 12.6549 13.2116Z" fill="black"/>
</svg>
